images/icons/icon-cart.svg

<svg width="26" height="24" viewBox="0 0 26 24" fill="none" xmlns="http://www.w3.org/2000/svg">
<path d="M13.197 20.6616C13.2052 19.7663 12.8568 18.9048 12.2286 18.2669C11.6004 17.6289 10.7443 17.2674 9.84896 17.2618C8.95383 17.2564 8.09324 17.6074 7.45722 18.2375C6.82126 18.8677 6.4623 19.7251 6.45949 20.6202C6.45669 21.5156 6.81047 22.3751 7.44254 23.0092C8.07442 23.643 8.93291 23.9996 9.82827 23.9996C10.7163 23.9996 11.5685 23.6488 12.1995 23.0238C12.8304 22.3986 13.1889 21.5496 13.197 20.6616ZM8.34458 20.6616C8.33639 20.2565 8.49096 19.865 8.7736 19.5747C9.05623 19.2843 9.44345 19.1193 9.84855 19.1165C10.2539 19.1139 10.6432 19.2737 10.9297 19.5602C11.2162 19.8467 11.376 20.2361 11.3732 20.6412C11.3704 21.0465 11.2055 21.4337 10.9151 21.7163C10.6249 21.9987 10.2334 22.1533 9.82831 22.1451C9.43486 22.1451 9.05736 21.9888 8.77925 21.7107C8.50092 21.4324 8.34458 21.0551 8.34458 20.6616Z" fill="black"/>
<path d="M22.4999 20.662C22.4999 19.7766 22.1483 18.9276 21.5222 18.3017C20.8964 17.6757 20.0474 17.324 19.162 17.324C18.2768 17.324 17.4278 17.6757 16.8017 18.3017C16.1758 18.9276 15.824 19.7766 15.824 20.662C15.824 21.5472 16.1758 22.3962 16.8017 23.0223C17.4278 23.6482 18.2768 24 19.162 24C20.0474 24 20.8964 23.6482 21.5222 23.0223C22.1483 22.3962 22.4999 21.5472 22.4999 20.662ZM17.6785 20.662C17.6865 20.2709 17.8452 19.8982 18.1218 19.6218C18.3984 19.3452 18.7712 19.1863 19.162 19.1785C19.5555 19.1785 19.933 19.3348 20.2111 19.6129C20.4894 19.8911 20.6457 20.2686 20.6457 20.662C20.6541 21.058 20.5006 21.4403 20.2206 21.7203C19.9405 22.0004 19.5581 22.1541 19.162 22.1455C18.7686 22.1455 18.3913 21.9892 18.1132 21.7111C17.8348 21.4327 17.6785 21.0555 17.6785 20.662Z" fill="black"/>
<path d="M24.3853 5.02321H6.39755L5.68653 1.37611C5.64169 1.19695 5.54898 1.03332 5.41834 0.902677C5.28769 0.77203 5.12406 0.679326 4.94491 0.634484L1.69964 0.0164042V0.0161886C1.45409 -0.0295159 1.20034 0.0224404 0.992542 0.160848C0.784716 0.299471 0.639195 0.513765 0.587018 0.758011C0.54196 0.9999 0.594563 1.24977 0.733836 1.45264C0.872888 1.65551 1.08697 1.79478 1.32885 1.83983L3.98683 2.33418L6.24296 13.7079V13.7081C6.39905 14.4801 6.816 15.1747 7.42376 15.6757C8.03174 16.1765 8.79337 16.4531 9.58094 16.4588H19.7184C20.4553 16.4618 21.1731 16.2253 21.764 15.7851C22.355 15.3446 22.7868 14.7241 22.9944 14.017L25.2816 6.16672C25.3527 5.88926 25.296 5.59434 25.127 5.3632C24.9455 5.14114 24.6717 5.01567 24.3852 5.02321H24.3853ZM21.2019 13.5226C21.1178 13.849 20.9251 14.137 20.6554 14.3392C20.3857 14.5414 20.0554 14.6458 19.7184 14.6352H9.58098C9.22462 14.6352 8.87945 14.5121 8.60328 14.2868C8.32733 14.0615 8.13783 13.7479 8.06646 13.3988L6.76838 6.87749H23.1489L21.2019 13.5226Z" fill="black"/>
</svg>

<svg version="1.2" xmlns="http://www.w3.org/2000/svg" viewBox="0 0 26 24" width="26" height="24"><style>.a{fill:#f2f2f2}</style><path class="a" d="m13.2 20.7c0-0.9-0.3-1.8-1-2.4-0.6-0.7-1.5-1-2.4-1-0.8 0-1.7 0.3-2.3 0.9-0.7 0.7-1 1.5-1 2.4 0 0.9 0.3 1.8 0.9 2.4 0.7 0.6 1.5 1 2.4 1 0.9 0 1.8-0.4 2.4-1 0.6-0.6 1-1.5 1-2.3zm-4.9 0c0-0.4 0.2-0.8 0.5-1.1 0.3-0.3 0.6-0.5 1-0.5 0.5 0 0.8 0.2 1.1 0.5 0.3 0.2 0.5 0.6 0.5 1 0 0.4-0.2 0.8-0.5 1.1-0.3 0.3-0.7 0.5-1.1 0.4-0.4 0-0.7-0.1-1-0.4-0.3-0.3-0.5-0.6-0.5-1z"/><path class="a" d="m22.5 20.7c0-0.9-0.4-1.8-1-2.4-0.6-0.6-1.5-1-2.3-1-0.9 0-1.8 0.4-2.4 1-0.6 0.6-1 1.5-1 2.4 0 0.8 0.4 1.7 1 2.3 0.6 0.6 1.5 1 2.4 1 0.8 0 1.7-0.4 2.3-1 0.6-0.6 1-1.5 1-2.3zm-4.8 0c0-0.4 0.1-0.8 0.4-1.1 0.3-0.3 0.7-0.4 1.1-0.4 0.4 0 0.7 0.1 1 0.4 0.3 0.3 0.4 0.7 0.4 1.1 0.1 0.4-0.1 0.7-0.4 1-0.3 0.3-0.6 0.5-1 0.4-0.4 0-0.8-0.1-1.1-0.4-0.3-0.3-0.4-0.6-0.4-1z"/><path class="a" d="m24.4 5h-18l-0.7-3.6q-0.1-0.3-0.3-0.5-0.2-0.2-0.5-0.3l-3.2-0.6q-0.4 0-0.7 0.2-0.3 0.2-0.4 0.6-0.1 0.3 0.1 0.7 0.3 0.3 0.6 0.3l2.7 0.5 2.2 11.4c0.2 0.8 0.6 1.5 1.2 2 0.6 0.5 1.4 0.8 2.2 0.8h10.1c0.8 0 1.5-0.3 2.1-0.7 0.6-0.5 1-1.1 1.2-1.8l2.3-7.8c0.1-0.3 0-0.6-0.2-0.8-0.2-0.3-0.4-0.4-0.7-0.4zm-3.2 8.5q-0.1 0.5-0.5 0.8-0.5 0.3-1 0.3h-10.1q-0.6 0-1-0.3-0.4-0.4-0.5-0.9l-1.3-6.5h16.3z"/></svg>
